public/icons/for-all.svg

<svg width="80" height="80" viewBox="0 0 80 80" fill="none" xmlns="http://www.w3.org/2000/svg">
<path d="M32.5314 19.6667C32.7428 14.7769 32.4537 15.7382 33.7268 11.0905C35.4089 5.25867 39.8883 -6.94948 42.6302 5.17659C43.9303 10.9562 44.7898 13.708 44.6666 19.6667C51.0309 12.163 58.5251 10.8472 67.2887 9.07691C68.0651 8.9203 68.977 8.84572 69.513 9.53928C72.3412 13.186 59.5621 24.8349 57.4734 26.5501C64.9966 26.7664 72.8095 27.8179 79.2113 32.6057C79.581 32.8891 79.9877 33.2545 80 33.784C79.9818 34.0022 79.9257 34.2133 79.8355 34.4035C79.7452 34.5937 79.6228 34.7587 79.4763 34.8877C77.0116 37.647 73.5242 38.6166 70.1785 38.9745C66.8328 39.3325 66.5866 40.1051 63.3333 41C67.8358 43.0317 68.7331 45.2515 72.1132 49.3853C73.7707 51.4138 75.3295 53.927 75.2803 56.7758C72.8649 58.1779 70.0121 57.2605 67.4489 56.3283L54.257 53C55.7358 56.8332 55.6311 58.67 56.2103 62.8761C56.7894 67.0822 56.352 71.609 54.257 74.9947C54.0019 75.4967 53.6128 75.8782 53.1541 76.0761C52.1991 76.3819 51.3673 75.2782 50.8189 74.2863C47.7362 68.7376 44.844 64.7928 42.6302 58.6667C41.2562 64.3494 40.1101 68.1188 38.1138 73.5107C36.9986 76.4937 35.2425 79.79 32.5314 79.9839C31.92 80.0601 31.3066 79.8639 30.8062 79.4321C30.0668 78.6863 29.9066 77.4707 29.808 76.3446C29.5599 73.5107 27.3333 63.6667 27.3333 57.9317L14.1022 64.8002C12.7467 65.8741 11.3357 66.9778 9.73984 67.2985C8.144 67.6192 6.28322 66.9182 5.53767 65.1731C4.50253 62.7345 6.05524 59.8782 7.65725 57.9317C12.9069 51.5405 15.4995 47.7408 21.9999 43.3333C17.4835 42.2669 15.4794 41.2938 10.9999 40.026C7.23521 38.967 4.84758 36.9088 1.85923 33.9406C0.4051 32.5013 -0.771756 29.6674 0.626916 28.1461C0.951496 27.818 1.3233 27.5651 1.72367 27.4003C9.73984 25 16.6636 24.0707 23.3333 26.5501C19.5427 21.1074 19.7554 19.9818 16.6962 13.9021C15.8952 12.3136 15.1004 10.6207 15.0326 8.76375C14.9761 8.0265 15.1165 7.28671 15.4331 6.65319C15.7022 6.24349 16.0403 5.90791 16.4249 5.66873C16.8095 5.42955 17.2317 5.29227 17.6636 5.26608C20.7752 4.84846 23.5787 7.50335 25.6736 10.3745C28.3945 14.1217 30.1557 15.0253 31.6666 19.6667" fill="#F5CDE2"/>
<path d="M45.3337 52V49.3333C45.3337 47.9188 44.7718 46.5623 43.7716 45.5621C42.7714 44.5619 41.4148 44 40.0003 44H32.0003C30.5858 44 29.2293 44.5619 28.2291 45.5621C27.2289 46.5623 26.667 47.9188 26.667 49.3333V52M45.3337 38.6667L48.0003 41.3333L53.3337 36M41.3337 33.3333C41.3337 36.2789 38.9458 38.6667 36.0003 38.6667C33.0548 38.6667 30.667 36.2789 30.667 33.3333C30.667 30.3878 33.0548 28 36.0003 28C38.9458 28 41.3337 30.3878 41.3337 33.3333Z" stroke="#235753" stroke-width="2" stroke-linecap="round" stroke-linejoin="round"/>
</svg>

<svg width="80" height="80" fill="none" xmlns="http://www.w3.org/2000/svg"><path d="M32.531 19.667c.212-4.89-.077-3.929 1.196-8.577 1.682-5.831 6.161-18.04 8.903-5.913 1.3 5.78 2.16 8.531 2.037 14.49 6.364-7.504 13.858-8.82 22.622-10.59.776-.157 1.688-.231 2.224.462 2.828 3.647-9.95 15.296-12.04 17.011 7.524.216 15.337 1.268 21.738 6.056.37.283.777.648.789 1.178-.018.218-.074.43-.165.62a1.5 1.5 0 0 1-.359.484c-2.464 2.759-5.952 3.729-9.297 4.087-3.346.358-3.592 1.13-6.846 2.025 4.503 2.032 5.4 4.252 8.78 8.385 1.658 2.029 3.216 4.542 3.167 7.39-2.415 1.403-5.268.486-7.831-.447L54.257 53c1.479 3.833 1.374 5.67 1.953 9.876.58 4.206.142 8.733-1.953 12.119-.255.502-.644.883-1.103 1.081-.955.306-1.787-.798-2.335-1.79-3.083-5.548-5.975-9.493-8.189-15.62-1.374 5.683-2.52 9.453-4.516 14.845-1.115 2.983-2.871 6.279-5.583 6.473-.611.076-1.224-.12-1.725-.552-.74-.746-.9-1.961-.998-3.087-.248-2.834-2.475-12.678-2.475-18.413L14.103 64.8c-1.356 1.074-2.767 2.178-4.363 2.499-1.596.32-3.457-.38-4.202-2.126-1.035-2.439.517-5.295 2.12-7.241C12.906 51.54 15.498 47.74 22 43.333c-4.517-1.066-6.52-2.04-11-3.307-3.765-1.059-6.152-3.117-9.14-6.085C.404 32.5-.773 29.667.626 28.146a3.333 3.333 0 0 1 1.097-.746c8.016-2.4 14.94-3.33 21.61-.85-3.791-5.443-3.579-6.568-6.638-12.648-.8-1.588-1.596-3.281-1.663-5.138a4.058 4.058 0 0 1 .4-2.11c.27-.41.607-.746.992-.985.384-.24.807-.377 1.239-.403 3.111-.418 5.915 2.237 8.01 5.108 2.72 3.748 4.482 4.651 5.993 9.293" fill="#F5CDE2"/><path d="M45.334 52v-2.667A5.333 5.333 0 0 0 40 44h-8a5.333 5.333 0 0 0-5.333 5.333V52m18.667-13.333L48 41.333 53.334 36m-12-2.667a5.333 5.333 0 1 1-10.667 0 5.333 5.333 0 0 1 10.667 0z" stroke="#235753" stroke-width="2" stroke-linecap="round" stroke-linejoin="round"/></svg>
